build/documents/PDFSolid.svg

<svg xmlns="http://www.w3.org/2000/svg" fill="none" viewBox="0 0 24 24" focusable="false"><path d="M0 0H24V24H0z"/><path fill="#74767B" fill-rule="evenodd" d="M17.65 3.3501C19.3069 3.3501 20.65 4.69324 20.65 6.3501L20.65 16.3501C20.65 18.007 19.3069 19.3501 17.65 19.3501L9.65 19.3501C7.99314 19.3501 6.65 18.007 6.65 16.3501L6.65 6.3501C6.65 4.69324 7.99314 3.3501 9.65 3.3501L17.65 3.3501ZM12.1364 11.6361C12.2147 11.2971 12.3094 10.8602 12.393 10.3926C12.0723 10.0559 11.7174 9.67848 11.4374 9.30424C11.1566 8.92895 10.8557 8.4366 10.845 7.90631C10.8391 7.61545 10.9209 7.32643 11.1113 7.07074C11.2941 6.82526 11.5505 6.64578 11.8409 6.51201C12.1376 6.37539 12.4698 6.29449 12.8056 6.36437C13.1626 6.43867 13.4155 6.66018 13.5765 6.91581C13.8613 7.36792 13.9109 8.00481 13.9031 8.55031C13.8966 8.99747 13.8474 9.48738 13.7788 9.96553C13.8162 10.0159 13.8532 10.066 13.8901 10.1157C14.2848 10.6487 14.6546 11.1481 15.0741 11.6764C16.4068 11.4597 17.4234 11.7238 18.016 12.3121C18.3973 12.6907 18.5933 13.2151 18.4672 13.741C18.3395 14.2731 17.9191 14.6563 17.3767 14.824C16.841 14.9896 16.3428 14.8116 15.9613 14.5719C15.5798 14.3322 15.2265 13.9783 14.9151 13.6147C14.7856 13.4635 14.656 13.3014 14.5284 13.1344C14.1412 13.2495 13.7579 13.3795 13.3749 13.5095C13.2323 13.5579 13.0897 13.6062 12.947 13.6538C12.8702 13.9055 12.7893 14.1518 12.7046 14.3867C12.5664 14.7706 12.4137 15.1366 12.2466 15.4506C12.0849 15.7544 11.8849 16.0575 11.6343 16.2715C10.9892 16.8225 10.1421 16.5831 9.67005 16.2226C9.41173 16.0253 9.18227 15.7415 9.07548 15.3871C8.96399 15.0171 8.9995 14.609 9.21804 14.228C9.52847 13.6867 10.0291 13.3703 10.7266 13.0738C11.0414 12.94 11.4239 12.7995 11.8856 12.6403C11.9764 12.3048 12.0604 11.9651 12.1364 11.6361ZM12.5993 8.68066C12.6012 8.63029 12.6025 8.58057 12.6032 8.53161C12.61 8.05896 12.5552 7.77745 12.4979 7.64945C12.4712 7.65705 12.4339 7.67016 12.3847 7.69279C12.2249 7.76642 12.1691 7.82688 12.1539 7.84722C12.1465 7.85725 12.1443 7.86011 12.1447 7.88011C12.1466 7.9717 12.2185 8.17817 12.4783 8.52546C12.5167 8.57669 12.5571 8.62843 12.5993 8.68066ZM4.65 8.7001C4.29101 8.7001 4 8.99111 4 9.3501L4 18.7501C4 20.545 5.45507 22.0001 7.25 22.0001L15.65 22.0001C16.009 22.0001 16.3 21.7091 16.3 21.3501C16.3 20.9911 16.009 20.7001 15.65 20.7001L7.25 20.7001C6.17304 20.7001 5.3 19.8271 5.3 18.7501L5.3 9.3501C5.3 8.99111 5.00898 8.7001 4.65 8.7001ZM13.3509 12.1506C13.39 11.9868 13.426 11.8313 13.4676 11.6433C13.54 11.7465 13.617 11.8578 13.6977 11.9746C13.7092 11.9911 13.7207 12.0078 13.7324 12.0246L13.3509 12.1506ZM16.6529 13.4712C16.4655 13.3534 16.252 13.1602 16.018 12.9006C16.6176 12.9139 16.958 13.0937 17.1001 13.2347C17.2197 13.3534 17.2048 13.4301 17.203 13.4379C17.2022 13.4412 17.1838 13.5229 16.9927 13.582C16.965 13.5906 16.8708 13.608 16.6529 13.4712ZM11.3829 14.209C11.3318 14.2297 11.2826 14.25 11.2352 14.2702C10.6178 14.5327 10.4416 14.7076 10.3457 14.8748C10.3058 14.9443 10.3114 14.9827 10.3202 15.012C10.3337 15.0569 10.3748 15.1251 10.4592 15.1895C10.5435 15.2539 10.637 15.2879 10.7079 15.2945C10.7719 15.3005 10.79 15.283 10.79 15.283C10.8575 15.2254 10.9658 15.09 11.099 14.8398C11.1936 14.6621 11.2887 14.4495 11.3829 14.209Z"/></svg>

<svg xmlns="http://www.w3.org/2000/svg" fill="none" viewBox="0 0 24 24" focusable="false"><path fill="#74767B" fill-rule="evenodd" d="M17.64 3.35c1.66 0 3 1.34 3 3v10c0 1.65-1.34 3-3 3h-8c-1.65 0-3-1.35-3-3v-10c0-1.66 1.35-3 3-3zm-5.51 8.28c.08-.34.17-.77.26-1.24-.32-.34-.68-.72-.96-1.09-.28-.38-.58-.87-.59-1.4-.01-.29.08-.58.27-.83.18-.25.44-.43.73-.56.29-.14.62-.22.96-.15.36.07.61.3.77.55.29.45.34 1.09.33 1.64-.01.44-.06.93-.13 1.41l.12.15c.39.53.76 1.03 1.18 1.56 1.33-.22 2.35.05 2.94.64.38.38.58.9.45 1.43s-.55.91-1.09 1.08c-.53.16-1.03-.01-1.41-.25-.39-.24-.74-.6-1.05-.96q-.195-.225-.39-.48c-.38.11-.77.24-1.15.37-.14.05-.29.1-.43.15-.07.25-.16.5-.24.73-.14.39-.29.75-.46 1.07-.16.3-.36.6-.61.82-.65.55-1.49.31-1.96-.05-.26-.2-.49-.48-.6-.84-.11-.37-.08-.78.14-1.16.31-.54.81-.85 1.51-1.15.32-.14.7-.28 1.16-.43.09-.34.18-.68.25-1.01m.46-2.95c.01-.05.01-.1.01-.15.01-.48-.05-.76-.11-.89-.02.01-.06.03-.11.05-.16.07-.22.13-.23.15-.01.01-.01.02-.01.04 0 .09.07.29.33.64.04.05.08.1.12.16m-7.95.02c-.35 0-.64.29-.64.65v9.4A3.25 3.25 0 0 0 7.25 22h8.39c.36 0 .65-.3.65-.65 0-.36-.29-.65-.65-.65H7.25c-1.08 0-1.95-.88-1.95-1.95v-9.4c0-.36-.3-.65-.66-.65m8.71 3.45c.03-.17.07-.32.11-.51.08.1.15.21.23.33.01.02.03.03.04.05zm3.3 1.32c-.19-.12-.4-.31-.64-.57.6.01.94.19 1.09.33.11.12.1.2.1.2 0 .01-.02.09-.21.15-.03.01-.12.02-.34-.11m-5.27.73c-.05.02-.1.05-.15.07-.62.26-.79.43-.89.6-.04.07-.03.11-.02.14.01.04.05.11.13.17.09.07.18.1.25.11s.09-.01.09-.01c.06-.06.17-.19.3-.45.1-.17.19-.39.29-.63"/></svg>
